!!!!SEGMENT: pl-wumfc--n53446--001-007_moniuszko-stanislaw--hrabina-no-6-recitativo-i-arya.krn
!!!cenid: 18xx:4094
!!!COM: Moniuszko, Stanisław
!!!COM-rismID: pe30008351
!!!CDT: 1819/05/05-1872/06/04
!!!CNT: Polish
!!!OPR: Hrabina
!!!OTL: No. 6. Recitativo i Arya
!!!OMV: 007
!!!PDT:
!!!AGN:
!!!SMS-siglum: PL-Wumfc
!!!SMS-shelfmark: N53446
!!!SMS-variant:
!!!SMS-altvar:
!!!SMS-shelfwork: 001-007 M
!!!NIFC-rismSourceID: 1001165649
!!!NIFC-rismChildID: 1001165649
!!!NIFC-islandoraID: pl-wumfc:6884
!!!URL-pdf-islandora: https://repozytorium.nifc.pl/islandora/object/pl-wumfc%3A6884/datastream/PDF/view
!!!URL-scan: https://polish.musicsources.pl/pl/lokalizacje/galeria/druki-muzyczne/12579-hrabina @EN{Scan on Polish Music Sources Website} @PL{Skany w portalu Dziedzictwo Muzyki Polskiej w otwartym dostępie}
!!!ONB-nifc:
!!!AIN: 1 piano
!!!key: D
**kern	**kern	**text	**dynam
*part1	*part1	*part1	*part1
*staff2	*staff1	*staff1	*
*I"[Piano.]	*I"[Piano.]	*	*
*Ipiano	*Ipiano	*	*
*ICklav	*ICklav	*	*
*clefF4	*clefG2	*	*
*k[b-]	*k[b-]	*	*
*D:	*D:	*	*
*M4/4	*M4/4	*	*
*met(c)	*met(c)	*	*
=1	=1	=1	=1
!!LO:TX:B:a:t=Agitato.
!	!LO:TX:t=P:problem:cały tekst zapisany ponad pięciolinią	!	!
16r	16r	.	.
16D\LL	16d/LL	.	f
16E\	16e/	.	.
16F\JJ	16f/JJ	.	.
16G\LL	16g/LL	.	.
16F\	16f/	.	.
16E\	16e/	.	.
16D\JJ	16d/JJ	.	.
16A\LL	16a/LL	.	.
16G\	16g/	.	.
16F\	16f/	.	.
16A\JJ	16a/JJ	.	.
16d\LL	16dd\LL	.	.
16A\	16a\	.	.
16d\	16dd\	.	.
16e\JJ	16ee\JJ	.	.
=2	=2	=2	=2
*^	*^	*	*^
8f\	2ryy	8ff\	2ryy	.	.	.
8FL 8FF^/	.	8fL 8c#X 8A^/	.	.	.	.
8BB-^/	.	8g 8d 8B-^/	.	.	.	.
8AA^/J	.	8fJ 8cn 8F^/	.	.	.	.
8D\	4ryy	8f 8B-/	4ryy	.	.	.
8r	.	8r	.	.	.	.
!	!	!	!	!	!LO:DY:a	!LO:DY:b=2
4D/	4AA-XTT\	4f#X/	4cTT\	.	sf	sf
*	*	*	*	*	*v	*v
=3	=3	=3	=3	=3	=3
8D/	8GG\	8g/	8Bn\	.	.
8r	8ryy	8r	8ryy	.	.
4r	4ryy	4r	4ryy	.	.
!	!	!LO:TX:B:a:t=Recit.	!	!	!
2r	2ryy	4bn\	2ryy	Więc	.
.	.	8b\L	.	już	.
.	.	8cc\J	.	mi	.
*v	*v	*	*	*	*
*	*v	*v	*	*
!!LO:LB:g=original
=4	=4	=4	=4
1r	4dd\	każ-	.
.	8.g/L	-dy	.
.	16g/Jk	wy-	.
.	4.bn\	-czy-	.
.	8d/	-ta	.
=5	=5	=5	=5
16r	16g/LL	z lica	.
16G\LL	16g/	.	.
16A\	16a/	.	.
16Bn\JJ	16bn/JJ	.	.
16c\LL	16cc/LL	.	.
16B\	16b/	.	.
16A\	16a/	.	.
16G\JJ	16g/JJ	.	.
16d\LL	16dd\LL	.	.
16c\	16cc\	.	.
16B\	16b\	.	.
16d\JJ	16dd\JJ	.	.
16e\LL	16ee\LL	.	.
16d\	16dd\	.	.
16e\	16ee\	.	.
16f\JJ	16ff\JJ	.	.
=6	=6	=6	=6
*^	*^	*	*^
8g\	2ryy	8gg\	2ryy	.	.	.
8GL 8GG^\	.	8gL 8d#X 8Bn^/	.	.	.	.
8c 8C^\	.	8g 8e 8c^/	.	.	.	.
8BnJ 8BBn^\	.	8gJ 8dn^/	.	.	.	.
8E\	4ryy	8g 8c/	4ryy	.	.	.
8r	.	8r	.	.	.	.
!	!	!	!	!	!LO:DY:a	!LO:DY:b=2
4E/	4BB-XT\	4g#X/	4dT\	.	sf	.
*	*	*	*	*	*v	*v
=7	=7	=7	=7	=7	=7
8E/	8AA\	8a/	4c#X\	.	.
8r	8ryy	8r	.	.	.
4r	4ryy	2cc#X\	4ryy	U-	.
2r	2ryy	.	2ryy	.	.
.	.	8dd\L	.	-rok	.
.	.	8ee\J	.	co	.
*v	*v	*	*	*	*
*	*v	*v	*	*
!!LO:LB:g=original
=8	=8	=8	=8
1r	4.ee\	du-	.
.	8a/	-szę	.
.	8.a/L	mo-	.
.	16g#X/K	-ją	.
.	8.a/	tak	.
.	16bn/Jk	za-	.
=9	=9	=9	=9
1r	4dd\	-chwy-	.
.	8cc#X\	-ca	.
.	8r	.	.
.	8r	.	.
.	8a/L	.	.
.	8.bn/	.	.
.	16a/Jk	.	.
=10	=10	=10	=10
*	*^	*	*
1A 1C#X	4a/	1e	.	.
.	8e/L	.	.	.
.	8f#X/J	.	.	.
.	4.g/	.	.	.
.	8a/	.	.	.
*	*v	*v	*	*
=11	=11	=11	=11
*tremolo	*	*	*
8AL 8F#X 8D\	8f#X/	.	.
8A 8F# 8D\	4d^/	.	.
8A 8F# 8D\	.	.	.
8AJ 8F# 8D\	16e/LL	.	<
.	16f#/JJ	.	.
8c#XL 8A 8G 8D\	16g/LL	.	.
.	16a/	.	.
8c# 8A 8G 8D\	16bn/	.	.
.	16cc#X/JJ	.	.
8c# 8A 8G 8D\	16dd\LL	.	.
.	16ee\	.	.
8c#J 8A 8G 8D\	16ff#X\	.	.
.	16gg\JJ	.	[[
*Xtremolo	*	*	*
!!LO:LB:g=original
=12	=12	=12	=12
8dL 8G#X 8D\	8bbnL 8ee#X 8dd 8bn\	.	f
8dJ 8A 8D\	8aaJ 8ff# 8dd 8a\	.	.
4r	4r	.	.
2r	4dd\	.	.
.	8cc#X\L	.	.
.	8dd\J	.	.
=13	=13	=13	=13
1r	8.dd\L	.	.
.	16a\Jk	.	.
!	!LO:TUP:b:problem:klamra łukowa	!	!
.	12a/L	.	.
.	12a/	.	.
.	12a/J	.	.
.	8.bn/L	.	.
.	16a/Jk	.	.
!	!LO:TUP:b:problem:klamra łukowa	!	!
.	12a/L	.	.
.	12g/	.	.
.	12f#X/J	.	.
=14	=14	=14	=14
*tremolo	*	*	*
8AL 8F#X 8D\	8e/L	.	f <
8A 8F# 8D\	[<8f#XJ 8d^/	.	.
8A 8F# 8D\	16f#/LL]	.	.
.	16g/	.	.
8AJ 8F# 8D\	16a/	.	.
.	16bn/JJ	.	.
8AL 8E 8C#X\	16cc#X\LL	.	.
.	16dd\	.	.
8A 8E 8C#\	16ee\	.	.
.	16ff#X\JJ	.	.
8A 8E 8C#\	16gg\LL	.	.
.	16aa\	.	.
8AJ 8E 8C#\	16bbn\	.	.
.	16ccc#X\JJ	.	[[
*Xtremolo	*	*	*
!!LO:LB:g=original
=15	=15	=15	=15
8c#XL 8G 8BBn\	8eeeL 8aa# 8ee\	.	.
8BnJ 8F#X 8BB\	8dddJ 8bbn 8dd\	.	.
4r	8r	.	.
.	8bn\	.	.
2r	8.b/L	.	.
.	16f#X/K	.	.
.	8b/	.	.
.	8dd/J	.	.
=16	=16	=16	=16
*^	*	*	*
2ryy	2ryy	4.ff#X\	.	.
.	.	8cc#X\	.	.
4ryy	4ryy	8.ee\L	.	.
.	.	16dd\Jk	.	.
8ryy	8ryy	8dd\	.	.
8d 8Bn/	8F# 8BBn\	8r	.	.
*v	*v	*	*	*
=17	=17	=17	=17
[1c [1G [1E	2r	.	.
.	4cc\	.	.
.	8g/L	.	.
.	8a/J	.	.
=18	=18	=18	=18
2.c] 2.G] 2.E\]	4b-X\	.	.
.	8a/L	.	.
.	8g/J	.	.
.	4cc\	.	.
4r	8r	.	.
.	8b-\	.	.
!!LO:PB:g=original
=19	=19	=19	=19
*tremolo	*	*	*
!	!LO:TX:i:a:t=a tempo	!	!
16ALL 16F\	8b-\	.	.
16c\	.	.	.
16A 16F\	4a 4f/	.	.
16c\	.	.	.
16A 16F\	.	.	.
16c\	.	.	.
16A 16F\	16g/LL	.	<
16c\JJ	16a/JJ	.	.
16cLL 16G 16F\	16b-\LL	.	.
16e\	16cc\	.	.
16c 16G 16F\	16dd\	.	.
16e\	16ee\JJ	.	.
16c 16G 16F\	16ff\LL	.	.
16e\	16gg\	.	.
16c 16G 16F\	16aa\	.	.
16e\JJ	16bb-\JJ	.	.
*Xtremolo	*	*	*
=20	=20	=20	=20
8fL 8Bn 8F^\	8dddL 8gg#X 8ff 8dd^\	.	.
8fJ 8c 8F^\	8cccJ 8aa 8ff 8cc^\	.	.
4r	4r	.	.
2r	4cc\	.	.
.	8b-/L	.	.
.	8a/J	.	.
=21	=21	=21	=21
1r	4.ff\	.	.
.	8cc\	.	.
.	8.a/L	.	.
.	16a/K	.	.
.	8g/	.	.
.	8f/J	.	.
!!LO:LB:g=original
=22	=22	=22	=22
*tremolo	*	*	*
16FLL 16D\	8e/	.	.
16A\	.	.	.
16F 16D\	4d/	.	.
16A\	.	.	.
16F 16D\	.	.	.
16A\	.	.	.
16F 16D\	16e/LL	.	<
16A\JJ	16f/JJ	.	.
16GLL 16D\	16g/LL	.	.
16B-\	16a/	.	.
16G 16D\	16b-/	.	.
16B-\	16cc/JJ	.	.
16G 16D\	16dd\LL	.	.
16B-\	16ee\	.	.
16G 16D\	16ff\	.	.
16B-\JJ	16gg\JJ	.	.
*Xtremolo	*	*	*
=23	=23	=23	=23
8dL 8G 8D^\	8bb-L 8ee 8b-^\	.	.
8dJ 8A 8D^\	8aaJ 8ff 8a^\	.	.
4r	8.r	.	.
.	16dd\	.	.
2r	4.dd\	.	.
.	8a/	.	.
=24	=24	=24	=24
4r	4cc\	.	.
8.r	8.b-\	.	.
32B-X\LLL	32fLLL 32d/	.	p
32B-\JJJ	32fJJJ 32d/	.	.
4..B-\	4..f 4..d/	.	.
32B-\LLL	32fLLL 32d/	.	.
32B-\JJJ	32fJJJ 32d/	.	.
=25	=25	=25	=25
!!LO:TX:B:a:t=Allegro.
8B-\L	8fL 8d/	.	f
8d\	8f 8d/	.	.
8B-\	8b- 8f 8d/	.	.
8F\J	8ddJ 8b- 8f/	.	.
8D\L	8ffL 8b- 8f\	.	.
8B- 8BB-\	8dd 8b- 8f\	.	.
8F 8FF\	8ff 8dd 8b-\	.	.
8DJ 8DD\	8bb-J 8ff 8dd\	.	.
!!LO:LB:g=original
=26	=26	=26	=26
4BB- 4BBB-/	4ddd 4bb- 4ff 4dd\	.	.
*tremolo	*	*	*
32FLLL 32D 32BB-\	8.r	.	.
32B-\	.	.	.
32F 32D 32BB-\	.	.	.
32B-\	.	.	.
32F 32D 32BB-\	.	.	.
32B-\	.	.	.
!	!LO:TX:B:a:t=Recit.	!	!
32F 32D 32BB-\	16f/	.	fp
32B-\	.	.	.
32F 32D 32BB-\	4f/	.	.
32B-\	.	.	.
32F 32D 32BB-\	.	.	.
32B-\	.	.	.
32F 32D 32BB-\	.	.	.
32B-\	.	.	.
32F 32D 32BB-\	.	.	.
32B-\	.	.	.
32F 32D 32BB-\	8d/	.	.
32B-\	.	.	.
32F 32D 32BB-\	.	.	.
32B-\	.	.	.
32F 32D 32BB-\	16r	.	.
32B-\	.	.	.
32F 32D 32BB-\	16b-\	.	.
32B-\JJJ	.	.	.
=27	=27	=27	=27
32FLLL 32D 32BB-\	4b-\	.	.
32B-\	.	.	.
32F 32D 32BB-\	.	.	.
32B-\	.	.	.
32F 32D 32BB-\	.	.	.
32B-\	.	.	.
32F 32D 32BB-\	.	.	.
32B-\	.	.	.
32F 32D 32BB-\	8f/	.	.
32B-\	.	.	.
32F 32D 32BB-\	.	.	.
32B-\	.	.	.
32F 32D 32BB-\	16r	.	.
32B-\	.	.	.
32F 32D 32BB-\	16b-\	.	.
32B-\JJJ	.	.	.
32FLLL 32D 32BB-\	4dd\	.	.
32B-\	.	.	.
32F 32D 32BB-\	.	.	.
32B-\	.	.	.
32F 32D 32BB-\	.	.	.
32B-\	.	.	.
32F 32D 32BB-\	.	.	.
32B-\	.	.	.
32F 32D 32BB-\	8.ee-X\L	.	.
32B-\	.	.	.
32F 32D 32BB-\	.	.	.
32B-\	.	.	.
32F 32D 32BB-\	.	.	.
32B-\	.	.	.
32F 32D 32BB-\	16ff\Jk	.	.
32B-\JJJ	.	.	.
*Xtremolo	*	*	*
=28	=28	=28	=28
!!LO:TX:B:a:t=Moderato.
16B-LL 16F 16D 16BB-\	2ff 2f\	.	ff
16B- 16F 16D 16BB-\	.	.	.
16B- 16F 16D 16BB-\	.	.	.
16B-JJ 16F 16D 16BB-\	.	.	.
8B- 8F 8D 8BB-\	.	.	.
8r	.	.	.
[2B- [2A-X [2F [2D\	8b-\	.	fp
.	16r	.	.
.	16b-\KL	.	.
.	8dd\	.	.
.	8cc\J	.	.
!!LO:LB:g=original
=29	=29	=29	=29
8B-] 8A-] 8F] 8D\]	4cc\	.	.
8r	.	.	.
4r	8.b-/L	.	.
.	16a-X/Jk	.	.
2r	4a-/	.	.
.	8.g/L	.	.
.	16f#X/Jk	.	.
=30	=30	=30	=30
8.r	8.g/L	.	.
16BBn/KL	16gK 16fn 16d/	.	.
8C/	8g 8e 8c/	.	.
16r	16r	.	.
16D/Jk	16gJk 16f 16Bn/	.	.
8C/	8gL 8e 8c/	.	.
8r	8g/	.	.
4r	8.f#X/	.	.
.	16g/Jk	.	.
=31	=31	=31	=31
*	*^	*	*
8.r	8.a/L	2ryy	.	.
16C#X\KL	16aK 16g 16e/	.	.	.
8D\	8a 8f 8d/	.	.	.
16r	16r	.	.	.
16E\Jk	16aJk 16g 16c#X/	.	.	.
8D\	4a 4f/	8d\	.	.
8r	.	8r	.	.
4r	8.dd\L	4ryy	.	.
.	16ee\Jk	.	.	.
!!LO:LB:g=original
=32	=32	=32	=32	=32
8.r	(2ff/	8.r	.	.
16d 16B- 16A-X\	.	16b- 16f\	.	f
8d 8B- 8A-\	.	8b- 8f\	.	.
8r	.	8r	.	.
2r	16f/)	2ryy	.	.
.	16r	.	.	.
.	8dd\L	.	.	.
.	8cc#X\	.	.	.
.	8dd\J	.	.	.
=33	=33	=33	=33	=33
*^	*	*	*	*
!!LO:TX:B:a:t=Lento.
4F/	1BB-	4.a/	[2.d\	.	p
4F#X/	.	.	.	.	.
.	.	8f#X/	.	.	.
8.G/L	.	8.g/L	.	.	.
16G#X/Jk	.	16g#X/K	.	.	.
4G#/	.	8.ee;/	8.d\L]	.	.
.	.	16dd/Jk	16e\Jk	.	.
*v	*v	*	*	*	*
=34	=34	=34	=34	=34
8A 8AA\	(2dd/	(2e\	.	.
8r	.	.	.	.
4r	.	.	.	.
2r	8cc#X/)	8G\)	.	.
.	(8g^/L	8r	.	.
.	8a/	4r	.	.
.	8b-/J)	.	.	.
*	*v	*v	*	*
=35	=35	=35	=35
1r;	(2d^/	.	.
.	8c#X/)	.	.
.	8r	.	.
.	4r;	.	.
*kcancel	*kcancel	*	*
!!LO:PB:g=original
=36||	=36||	=36||	=36||
*k[f#c#]	*k[f#c#]	*	*
*M4/4	*M4/4	*	*
*met(c)	*met(c)	*	*
*ped	*	*	*
!!LO:TX:B:a:t=Andantino.
!LO:TX:t=P:problem:mixed beam	!	!	!
8DD/L	2r	.	p
8d 8A 8F#'\	.	.	.
8A 8F# 8D'\	.	.	.
8dJ 8A 8F#'\	.	.	.
*Xped	*	*	*
8AL 8F# 8D'\	8r	.	.
8d 8A 8F#'\	8a\L	Od	.
8A 8F# 8D'\	8.ff#\	two-	.
8dJ 8A 8F#'\	.	.	.
.	16ee\Jk	-jej	.
=37	=37	=37	=37
!LO:TX:t=P:problem:mixed beam	!	!	!
8DD/L	(2ee\	wo-li...	.
8d 8A 8F#\	.	.	.
8A 8F# 8D\	.	.	.
8dJ 8A 8F#\	.	.	.
8AL 8F# 8D\	8dd\)	.	.
8d 8A 8F#\	8a\L	.	.
8A 8F# 8D\	8.dd\	.	.
8dJ 8A 8F#\	.	.	.
.	16cc#\Jk	.	.
=38	=38	=38	=38
8GG/	(2cc#\	.	.
8dL 8B 8G\	.	.	.
8B 8G 8D\	.	.	.
8dJ 8B 8G\	.	.	.
8BL 8G 8D\	8b\)	.	.
8d 8B 8G\	8b\L	.	.
8B 8G 8E\	8cc#\	.	.
8dJ 8B 8G\	8dd\J	.	.
!!LO:LB:g=original
=39	=39	=39	=39
8AA\L	4ee\	.	.
8c# 8A 8G\	.	.	.
8A 8G 8E\	8.dd\L	.	.
8c#J 8A 8G\	.	.	.
.	16cc#\Jk	.	.
8BL 8G 8E\	4b\	.	.
8d 8B 8G\	.	.	.
8A 8G 8E\	4cc#\	.	.
8eJ 8A 8G\	.	.	.
=40	=40	=40	=40
!LO:TX:t=P:problem:mixed beam	!	!	!
8DD/L	(2dd\	.	.
8d 8A 8F#\	.	.	.
8A 8F# 8D\	.	.	.
8dJ 8A 8F#\	.	.	.
8AL 8F# 8D\	8a/)	.	.
8f#J 8A\	8a\L	.	.
8GG\L	8b\	.	.
8dJ 8B 8G\	8dd\J	.	.
=41	=41	=41	=41
8AA\L	(4.cc#\	.	.
8c# 8A 8G\	.	.	.
8A 8G 8E\	.	.	.
8dJ 8A 8G\	8b\	.	.
8AL 8G 8E\	8a/)	.	.
8c# 8A 8G\	8a\L	.	.
8AA\	8.b\	.	.
8BJ 8G 8D\	.	.	.
.	16ee\Jk	.	.
!!LO:LB:g=original
=42	=42	=42	=42
*ped	*	*	*
!LO:TX:t=P:problem:mixed beam	!	!	!
8AA/L 8AAA/	(2ee: 2g: 2e^:/	.	.
8A 8G 8E 8C#\	.	.	.
8c# 8A 8G 8E\	.	.	.
8eJ 8c# 8A 8G\	.	.	.
16f# 16e 16c# 16A\	16a/)	.	.
*Xped	*	*	*
16r;	16r;	.	.
8r	8a\L	.	mf
4r;	8.ff#;\	.	.
.	16ee\Jk	.	.
=43	=43	=43	=43
*ped	*	*	*
!LO:TX:t=P:problem:mixed beam	!	!	!
8DD/L	(2ee: [2a: [2f#:/	.	.
8d 8A 8F#\	.	.	.
8A 8F# 8D\	.	.	.
8dJ 8A 8F#\	.	.	.
*Xped	*	*	*
8AL 8F# 8D\	8dd 8a] 8f#/])	.	.
8d 8A 8F#\	8a\L	.	.
8A 8F# 8D\	8.dd\	.	.
8dJ 8A 8F#\	.	.	.
.	16cc#\Jk	.	.
=44	=44	=44	=44
*ped	*	*	*
8GG/	(2cc# 2g 2d/	.	.
8eL 8B 8G\	.	.	.
8B 8G 8D\	.	.	.
8eJ 8B 8G\	.	.	.
*Xped	*	*	*
8d 8B 8G\	8b 8g/)	.	.
8B\L	8b\L	.	<
8e\J	8ee\	.	.
8r	8ff#J 8f#\	.	[[
!!LO:LB:g=original
=45	=45	=45	=45
*	*^	*	*
*ped	*	*	*	*
4e: 4B: 4G: 4E:\	(4gg 4g;\	2ryy	.	sf
*Xped	*	*	*	*
4r	8b\)	.	.	.
.	16r	.	.	.
!	!LO:TUP:a:problem:klamra łukowa	!	!	!
.	48b\LLL	.	.	.
.	48cc#\	.	.	.
.	48dd\JJJ	.	.	.
*ped	*	*	*	*
4r	(4.ff#;\	4ryy	.	.
!LO:TX:t=P:problem:obie nuty połączone wertykalnym łukiem	!	!	!	!
4c# 4AA;\	.	(4a;> 4g\	.	.
*Xped	*	*	*	*
.	8ee\	.	.	.
*	*v	*v	*	*
=46	=46	=46	=46
*ped	*	*	*
8D 8DD/	8dd 8f#/))	.	.
8AL 8F#\	8aL 8f# 8d/	.	<
8F# 8D\	8a 8f# 8d/	.	.
8AJ 8F#\	8aJ 8f# 8d/	.	[
8F# 8D\	8a 8f# 8d/	.	f
8f#L 8d 8A\	8aaL 8ff# 8a\	.	.
8d 8A 8F#\	8.fff# 8.aa 8.ff#\	.	.
*Xped	*	*	*
8f#J 8d 8A\	.	.	.
.	16eeeJk 16aa 16ee\	.	.
=47	=47	=47	=47
*	*^	*	*
*ped	*	*	*	*
!LO:TX:t=P:problem:mixed beam	!	!	!	!
8DD/L	(2eee/	8aaL 8ee\	.	.
8f# 8d 8A\	.	8aa 8ee\	.	.
8d 8A 8F#\	.	8aa 8ee\	.	.
8f#J 8d 8A\	.	8aaJ 8ee\	.	.
*Xped	*	*	*	*
8dL 8A 8F#\	8ddd 8aa 8dd\)	2ryy	.	.
8f# 8d 8A\	8aaL 8ff# 8a\	.	.	.
8d 8A 8F#\	8.ddd 8.aa 8.dd\	.	.	.
8f#J 8d 8A\	.	.	.	.
.	16cccnJk 16ccn\	.	.	.
!!LO:LB:g=original
=48	=48	=48	=48	=48
*ped	*	*	*	*
!LO:TX:t=P:problem:mixed beam	!	!	!	!LO:HP:b:t=dim.
8GG/L 8GGG/	2cccn/	8ddL 8ccn\	.	>
8g 8d\	.	8dd 8cc\	.	.
8d 8G\	.	8dd 8cc\	.	.
8gJ 8d\	.	8ddJ 8cc\	.	.
*Xped	*	*	*	*
8dL 8G\	8bb-X/	4dd 4b-X\	.	.
8g 8d 8B-X\	8r	.	.	.
8d 8G\	4r	8.a\L	.	.
8gJ 8d\	.	.	.	.
.	.	16b-\Jk	.	.
*	*v	*v	*	*
=49	=49	=49	=49
8FFn\L	4ccn\	.	<
8fn 8e-X 8A\	.	.	.
8e- 8A 8Fn\	8.cc\L	.	.
8fJ 8e- 8A\	.	.	.
.	16cc\Jk	.	.
8FF\L	4ee-X\	.	[ >
8f 8cn 8A\	.	.	.
8c 8A 8F\	8.dd\L	.	.
8fJ 8c 8A\	.	.	.
.	16cc\Jk	.	]]
=50	=50	=50	=50
*ped	*	*	*
8BB-X\L	(2dd\	.	>
8fn 8d 8B-X\	.	.	.
8d 8B- 8Fn\	.	.	.
8fJ 8d 8B-\	.	.	.
*Xped	*	*	*
8d 8B- 8F\	8b-X\)	.	.
8dL 8B- 8F\	8ffnL 8fn\	.	] p
8B- 8F 8D\	8.ddd 8.ff 8.dd\	.	.
8dJ 8B- 8F\	.	.	.
.	16cccnJk 16ccn\	.	.
!!LO:PB:g=original
=51	=51	=51	=51
*	*^	*	*
*ped	*	*	*	*
!LO:TX:t=P:problem:mixed beam	!	!	!	!
8BBB-X/L	(2cccn/	8ffnL 8ccn\	.	.
8d 8B-X 8Fn\	.	8ff 8cc\	.	.
8B- 8F 8D\	.	8ff 8cc\	.	.
8dJ 8B- 8F\	.	8ffJ 8cc\	.	.
*Xped	*	*	*	*
8B-L 8F 8D\	8bb-X/)	8ff 8b-X\	.	.
8d 8B- 8F\	8ff 8fn\	8ryy	.	.
8B- 8F#X 8D\	8.bb-L 8.dd 8.b-\	4ryy	.	.
8dJ 8B- 8F#\	.	.	.	.
.	16aaJk 16dd 16a\	.	.	.
=52	=52	=52	=52	=52
*ped	*	*	*	*
8BB-X\L	(2aa/	8ddL 8a\	.	.
8d 8B-X 8G\	.	8dd 8a\	.	.
8B- 8G 8D\	.	8dd 8a\	.	.
8dJ 8B- 8G\	.	8ddJ 8a\	.	.
*Xped	*	*	*	*
8B- 8G 8D\	8gg/)	8dd 8g\	.	.
8G\L	8g/L	8ryy	.	<
8A\	8a/	4ryy	.	.
8B-\J	8b-X/J	.	.	[[
*	*v	*v	*	*
=53	=53	=53	=53
4cn 4G 4E-X\	4ccn 4g/	.	mf
8.BnL 8.D\	8.ddL 8.g\	.	.
16BJk 16D\	16ddJk 16g\	.	.
4G 4BB\	4ffn 4dd 4g\	.	.
4Cn/	4ee-X 4cc 4g\	.	.
!!LO:LB:g=original
=54	=54	=54	=54
*	*^	*	*
8D 8DD/	32dd/LLL	2ryy	.	.
.	32f#X/	.	.	.
.	32a/	.	.	.
.	32f#/	.	.	.
8d\L	32a/	.	.	.
.	32f#/	.	.	.
.	32a/	.	.	.
.	32f#/JJJ	.	.	.
8.e-X^\	32a/LLL	.	.	.
.	32f#/	.	.	.
.	32a/	.	.	.
.	32f#/	.	.	.
.	32a/	.	.	.
.	32f#/	.	.	.
16c#X\Jk	32a/	.	.	.
.	32f#/JJJ	.	.	.
4d\	32a/LLL	8ryy	.	.
.	32f#/	.	.	.
.	32a/	.	.	.
.	32f#/JJ	.	.	.
.	32dd/LL	8dd^^\L	.	.
.	32f#/	.	.	.
.	32a/	.	.	.
.	32f#/JJ	.	.	.
4r	32ee-X/LL	8ee-^^\	.	.
.	32f#/	.	.	.
.	32a/	.	.	.
.	32f#/JJ	.	.	.
.	32cc#/LL	8cc#^^\J	.	.
.	32f#/	.	.	.
.	32a/	.	.	.
.	32f#/JJJ	.	.	.
!!LO:LB:g=original
=55	=55	=55	=55	=55
!	!	!LO:N:vis=2:note=wyświetla się jako 8 zamiast 32	!	!
8Cn 8CCn/	[2dd^^/	32dd\LLL	.	.
.	.	32f#\	.	.
.	.	32a\	.	.
.	.	32f#\	.	.
8cn\L	.	32a\	.	.
.	.	32f#\	.	.
.	.	32a\	.	.
.	.	32f#\	.	.
8.d^\	.	32a\JJ	.	.
.	.	32f#\LL	.	.
.	.	32a\	.	.
.	.	32f#\	.	.
.	.	32a\	.	.
.	.	32f#\	.	.
16B\Jk	.	32a\	.	.
.	.	32f#\JJJ	.	.
4c\	8dd/]	32a\LLL	.	.
.	.	32f#\	.	.
.	.	32a\	.	.
.	.	32f#\JJ	.	.
.	8dd^^/L	32dd\LL	.	.
.	.	32f#\	.	.
.	.	32a\	.	.
.	.	32f#\JJ	.	.
4r	8ee-X^^/	32ee-\LL	.	.
.	.	32f#\	.	.
.	.	32a\	.	.
.	.	32f#\JJ	.	.
.	8cc#^^/J	32cc#X\LL	.	.
.	.	32f#\	.	.
.	.	32a\	.	.
.	.	32f#\JJJ	.	.
!!LO:LB:g=original
=56	=56	=56	=56	=56
!	!	!LO:N:vis=2:note=wyświetla się jako 8 zamiast 32	!	!
8BB-X 8BBB-X/	[2dd/	32dd\LLL	.	.
.	.	32d\	.	.
.	.	32g\	.	.
.	.	32d\	.	.
8B-X\L	.	32g\	.	.
.	.	32d\	.	.
.	.	32g\	.	.
.	.	32d\JJ	.	.
8.cn^\	.	32g\LL	.	.
.	.	32d\	.	.
.	.	32g\	.	.
.	.	32d\	.	.
.	.	32g\	.	.
.	.	32d\	.	.
16A\Jk	.	32g\	.	.
.	.	32d\JJJ	.	.
4B-\	8dd/]	32g\LLL	.	.
.	.	32d\	.	.
.	.	32g\	.	.
.	.	32d\JJ	.	.
.	8dd/L	32dd\LL	.	.
.	.	32d\	.	.
.	.	32g\	.	.
.	.	32d\JJ	.	.
4r	8cc#/	32cc#X\LL	.	.
.	.	32d\	.	.
.	.	32g\	.	.
.	.	32d\JJ	.	.
.	8dd/J	32dd\LL	.	.
.	.	32d\	.	.
.	.	32g\	.	.
.	.	32d\JJJ	.	.
!!LO:LB:g=original
=57	=57	=57	=57	=57
*^	*	*	*	*
8r	2D\	4ffn/	32ff\LLL	.	.
.	.	.	32fn\	.	.
.	.	.	32b-X\	.	.
.	.	.	32f\	.	.
8B-X/	.	.	32b-\	.	.
.	.	.	32f\	.	.
.	.	.	32b-\	.	.
.	.	.	32f\JJJ	.	.
8qd/	.	.	.	.	.
8cn/L	.	8.b-/L	32b-\LLL	.	.
.	.	.	32f\	.	.
.	.	.	32a-X\	.	.
.	.	.	32f\	.	.
[8B-/J	.	.	32a-\	.	.
.	.	.	32f\	.	.
.	.	16b-/Jk	32a-\	.	.
.	.	.	32f\JJJ	.	.
4B-/]	2D\	4ccn/	32a-\LLL	.	.
.	.	.	32f\	.	.
.	.	.	32a-\	.	.
.	.	.	32f\	.	.
.	.	.	32a-\	.	.
.	.	.	32f\	.	.
.	.	.	32a-\	.	.
.	.	.	32f\JJJ	.	.
4B-/	.	8b-/L	32b-\LLL	.	.
.	.	.	32f\	.	.
.	.	.	32b-\	.	.
.	.	.	32f\	.	.
.	.	8a-/J	32a-\	.	.
.	.	.	32f\	.	.
.	.	.	32a-\	.	.
.	.	.	32f\JJJ	.	.
*v	*v	*	*	*	*
*	*v	*v	*	*
!!LO:PB:g=original
=58	=58	=58	=58
!	!LO:TX:i:a:t=più mosso.	!	!
8E-X 8EE-X/	8gL 8e-X 8B-X 8G/	.	sf <
8B-XL 8G 8E-\	16r	.	.
.	16f#/Jk	.	.
8B- 8G 8E-\	16g/LL	.	.
.	16a-X/	.	.
8B-J 8G 8E-\	16an/	.	.
.	16b-X/JJ	.	.
8B-L 8G 8E-\	16bn\LL	.	.
.	16ccn\	.	.
8B- 8G 8E-\	16dd-X\	.	.
.	16ddn\JJ	.	.
8B- 8G 8E-\	16ee-X\LL	.	.
.	16een\	.	.
8B-J 8G 8E-\	16ffn\	.	.
.	16ff#X\JJ	.	[[
=59	=59	=59	=59
*^	*	*	*
8Bn 8G 8Fn/	4D\	8gg\	.	.
4B 4G 4F/	.	16r	.	.
.	.	16g/	.	p
.	4D\	8.a-X^/L	.	<
4B 4F/	.	.	.	.
.	.	16g/Jk	.	.
.	4D\	8.ccn^\L	.	.
4B 4F/	.	.	.	.
.	.	16b\Jk	.	.
.	4D\	8.ee-X^\L	.	.
8B 8F/	.	.	.	.
.	.	16dd\Jk	.	.
*v	*v	*	*	*
!!LO:LB:g=original
=60	=60	=60	=60
8cn 8E-X 8Cn\	8gg 8ccn 8g\	.	sf <
8GL 8E- 8C\	16r	.	.
.	16f#X/	.	.
8G 8E- 8C\	16g/LL	.	.
.	16a-X/	.	.
8GJ 8E- 8C\	16an/	.	.
.	16b-X/JJ	.	.
8GL 8E- 8C\	16bn\LL	.	.
.	16ccn\	.	.
8G 8E- 8C\	16cc#X\	.	.
.	16dd\JJ	.	.
8G 8E- 8C\	16ee-X\LL	.	.
.	16een\	.	.
8GJ 8E- 8C\	16ffn\	.	.
.	16ff#X\JJ	.	[[
=61	=61	=61	=61
*^	*	*	*
8G 8E-X 8Cn/	4BB-X\	8gg\	.	.
4G 4E- 4C/	.	16r	.	.
.	.	16g/	.	p
.	4BB-\	8.dd^\L	.	<
4G 4E- 4C/	.	.	.	.
.	.	16ccn\Jk	.	.
.	4BB-\	8.ee-X^\L	.	.
4G 4E- 4C/	.	.	.	.
.	.	16dd\Jk	.	.
.	4BB-\	8.ffn^\L	.	.
8G 8E- 8C/	.	.	.	.
.	.	16ee-\Jk	.	.
*v	*v	*	*	*
=62	=62	=62	=62
!LO:TX:t=P:problem:błędne wyświetlanie łuku	!	!	!
(8AA\L	2ee-X: 2ccn: 2g: 2e-X/:	.	fp
8E-X\	.	.	.
8G\	.	.	.
8cn\J	.	.	.
*Xped	*	*	*
2g> 2e-X>\)	8ee-/	.	.
.	(8ee-^/L	.	.
.	8ccn/	.	.
.	8a/J)	.	.
!!LO:LB:g=original
=63	=63	=63	=63
*ped	*	*	*
(8DD/L	(4g^/	.	.
8AA/	.	.	.
8D/	8.f#/L	.	.
8A/J	.	.	.
.	16g/Jk	.	.
*Xped	*	*	*
8d 8cn 8F#\)	16a/LL	.	.
.	16b-X/	.	.
8r	16a/	.	.
.	16g#X/JJ	.	.
4r	8.a\L	.	.
.	16dd\Jk)	.	.
=64	=64	=64	=64
*ped	*	*	*
!LO:TX:t=P:problem:błędne wyświetlanie łuku	!	!	!
(8GG\L	2dd: 2bn: 2g: 2d:/	.	.
8D\	.	.	.
8G\	.	.	.
8B\J	.	.	.
*Xped	*	*	*
!	!	!	!LO:DY:a:t=più f
2fn> 2d>\)	8dd/	.	f
.	(8ffn^/L	.	.
.	8dd/	.	.
.	8b/J)	.	.
=65	=65	=65	=65
8EE/L	(4a/	.	.
8BB/	.	.	.
8E/	8.g#X/L	.	.
8B/J	.	.	.
.	16a/Jk	.	.
8e 8d 8G#X\	16b/LL	.	>
.	16ccn/	.	.
8r	16b/	.	.
.	16a#X/JJ	.	.
4r	8.b\L	.	.
.	16ee\Jk)	.	]]
!!LO:LB:g=original
=66||	=66||	=66||	=66||
*k[]	*k[]	*	*
8AA/	(4.ee\	.	<
8eL 8c 8A\	.	.	.
8e 8c 8A\	.	.	.
8eJ 8c 8A\	16ff\LL	.	.
.	16ee\JJ	.	.
8fL 8d 8B 8A\	16dd\LL	.	.
.	16cc\	.	.
8f 8d 8B 8A\	16b\	.	.
.	16cc\JJ	.	.
8f 8d 8B 8A\	16dd\LL	.	.
.	16ee\	.	.
8fJ 8d 8B 8A\	16ff\	.	.
.	16gg\JJ	.	[[
=67	=67	=67	=67
8eL 8c 8A\	4.aa\	.	>
8e 8c 8A\	.	.	.
8e 8c 8A\	.	.	.
8eJ 8c 8A\	16gg\LL	.	.
.	16ff\JJ	.	.
8fL 8d 8A\	16ee\LL	.	.
.	16dd\	.	.
8f 8d 8A\	16cc\	.	.
.	16b\JJ	.	.
8f 8d 8A\	16a\LL	.	.
.	16b\	.	.
8fJ 8d 8A\	16cc\	.	.
.	16dd\JJ)	.	]]
=68	=68	=68	=68
8eL 8c 8A\	(4.ee\	.	<
8e 8c 8A\	.	.	.
8e 8c 8A\	.	.	.
8eJ 8c 8A\	16ff\LL	.	.
.	16ee\JJ	.	.
8fL 8d 8B 8A\	16dd\LL	.	.
.	16cc\	.	.
8f 8d 8B 8A\	16b\	.	.
.	16cc\JJ	.	.
8f 8d 8B 8A\	16dd\LL	.	.
.	16ee\	.	.
8fJ 8d 8B 8A\	16ff\	.	.
.	16gg\JJ)	.	[[
!!LO:LB:g=original
=69	=69	=69	=69
8eL 8c 8A\	(4.aa\	.	>
8e 8c 8A\	.	.	.
8e 8c 8A\	.	.	.
8eJ 8c 8A\	16gg\LL	.	.
.	16ff\JJ	.	.
8fL 8d 8A\	16ee\LL	.	.
.	16dd\	.	.
8f 8d 8A\	16cc\	.	.
.	16b\JJ	.	.
8f 8d 8A\	16a\LL	.	.
.	16b\	.	.
8fJ 8d 8A\	16cc\	.	.
.	16dd\JJ)	.	]]
=70	=70	=70	=70
*	*^	*	*
32AA\LLL	8ee\	2ryy	.	.
32cn\	.	.	.	.
32A\	.	.	.	.
32c\	.	.	.	.
32A\	8ee\L	.	.	.
32c\	.	.	.	.
32A\	.	.	.	.
32c\	.	.	.	.
32A\	8.ffn^\	.	.	.
32c\	.	.	.	.
32A\	.	.	.	.
32c\	.	.	.	.
32A\	.	.	.	.
32c\	.	.	.	.
32A\	16dd#X\Jk	.	.	.
32c\JJJ	.	.	.	.
32A\LLL	2ee/	8r	.	.
32c\	.	.	.	.
32A\	.	.	.	.
32c\	.	.	.	.
32A\	.	8e\L	.	.
32c\	.	.	.	.
32A\	.	.	.	.
32c\	.	.	.	.
32A\	.	8.fn\	.	.
32c\	.	.	.	.
32A\	.	.	.	.
32c\	.	.	.	.
32A\	.	.	.	.
32c\	.	.	.	.
32A\	.	16d#X\Jk	.	.
32c\JJJ	.	.	.	.
!!LO:PB:g=original
=71	=71	=71	=71	=71
32A\LLL	8r	2e\	.	.
32B\	.	.	.	.
32A\	.	.	.	.
32B\	.	.	.	.
32A\	8ee/L	.	.	.
32B\	.	.	.	.
32A\	.	.	.	.
32B\	.	.	.	.
32G#X\	8.ff/	.	.	.
32B\	.	.	.	.
32G#\	.	.	.	.
32B\	.	.	.	.
32G#\	.	.	.	.
32B\	.	.	.	.
32G#\	16dd#X/Jk	.	.	.
32B\JJJ	.	.	.	.
32Gn\LLL	8ee/	2ryy	.	.
32B-X\	.	.	.	.
32G\	.	.	.	.
32B-\	.	.	.	.
32G\	8c/L	.	.	.
32B-\	.	.	.	.
32G\	.	.	.	.
32B-\JJJ	.	.	.	.
.	8qe/	.	.	.
32GnLLL 32C\	8dn/	.	.	.
32B-X\	.	.	.	.
32G\	.	.	.	.
32B-\	.	.	.	.
32G\	8c/J	.	.	.
32B-\	.	.	.	.
32G\	.	.	.	.
32B-\JJJ	.	.	.	.
!!LO:LB:g=original
=72	=72	=72	=72	=72
!	!LO:TX:i:a:t=più mosso.	!	!	!
16ALL 16F\	8f/	2ryy	.	.
16c\	.	.	.	.
16A 16F\	8a\L	.	.	.
16c\JJ	.	.	.	.
16ALL 16F\	8.aa\	.	.	.
16c\	.	.	.	.
16A 16F\	.	.	.	.
16c\JJ	16gg\Jk	.	.	.
16ALL 16F\	(4gg^/	8r	.	.
16c\	.	.	.	.
16A 16F\	.	8a\L	.	.
16c\JJ	.	.	.	.
16ALL 16F\	8ff/)	8a\	.	.
16c\	.	.	.	.
16A 16F\	8ryy	8ff\J	.	.
16c\JJ	.	.	.	.
=73	=73	=73	=73	=73
16GLL 16E\	8ee\	2ryy	.	.
16c#X\	.	.	.	.
16G 16E\	8A/L	.	.	.
16c#\JJ	.	.	.	.
16GLL 16E\	8.g/	.	.	.
16c#\	.	.	.	.
16G 16E\	.	.	.	.
16c#\JJ	16f/Jk	.	.	.
16GLL 16E\	8r	(4f^\	.	.
16c#\	.	.	.	.
16G 16E\	8a/L	.	.	.
16c#\JJ	.	.	.	.
16GLL 16E\	8a/	8e\)	.	.
16c#\	.	.	.	.
16G 16E\	8g/J	8r	.	.
16c#\JJ	.	.	.	.
*	*v	*v	*	*
!!LO:LB:g=original
=74	=74	=74	=74
16FLL 16D\	8f/	.	.
16d\	.	.	.
16F 16D\	8a\L	.	.
16d\JJ	.	.	.
16FLL 16D\	8.ff\	.	.
16d\	.	.	.
16F 16D\	.	.	.
16d\JJ	16ee\Jk	.	.
16FLL 16D\	(4ee^\	.	.
16A\	.	.	.
16F 16D\	.	.	.
16A\JJ	.	.	.
16FLL 16D\	8dd\)	.	.
16A\	.	.	.
16F 16D\	8r	.	.
16A\JJ	.	.	.
=75	=75	=75	=75
16FF#X\LL	8r	.	.
16A\	.	.	.
16E-X 16C\	8cc\L	.	.
16A\JJ	.	.	.
16E-LL 16C\	8.ee-X\	.	.
16A\	.	.	.
16E- 16C\	.	.	.
16A\JJ	16dd\Jk	.	.
16DLL 16C\	4dd\	.	.
16A\	.	.	.
16D\	.	.	.
16A\JJ	.	.	.
16FF#\LL	4cc\	.	.
16A\	.	.	.
16D\	.	.	.
16A\JJ	.	.	.
!!LO:LB:g=original
=76	=76	=76	=76
8GL 8GG/	8b-X/L	.	<
16r	16r	.	.
16GK 16D 16BB-X 16GG/	16d/K	.	.
8G 8D 8BB- 8GG/	8g/	.	.
16r	16r	.	.
16GJk 16D 16BB- 16GG/	16b-X/Jk	.	.
8G 8D 8BB- 8GG/	8dd\	.	[
16r	16r	.	.
16GKL 16GG/	16b-KL 16g 16d/	.	f
8D 8DD/	8dd 8b- 8g/	.	.
16r	16r	.	.
16BB-Jk 16BBB-X/	16ggJk 16dd 16b-/	.	.
=77	=77	=77	=77
8GG 8GGG/	8bb-X 8dd 8b-X\	.	.
8r	8r	.	.
8r	8r	.	.
8D^\	8d^/	.	.
!	!LO:TX:i:a:t=rallent.	!	!
8G^\L	8g^/L	.	.
8A^\	8a^/	.	.
8B-X^\	8b-^/	.	.
8d^\J	8dd^/J	.	.
=78	=78	=78	=78
*^	*^	*	*
(2G/	1D 1BB-X	(4.gg 4.dd 4.g\	2ryy	.	sff >
.	.	8ff 8f\	.	.	.
2G#X/	.	4ee 4e/	2e\	.	]
.	.	4dd/)	.	.	.
*v	*v	*	*	*	*
*	*v	*v	*	*
!!LO:LB:g=original
=79||	=79||	=79||	=79||
*k[f#c#]	*k[f#c#]	*	*
!!LO:TX:B:a:t=Un poco più mosso.
8A 8AA\)	8cc#:L 8e: 8c#:/	.	.
8eL 8c# 8A\	16r	.	.
.	16g#X'/Jk	.	.
8e 8c# 8A\	16a'/LL	.	.
.	16a#X'/	.	.
8eJ 8c# 8A\	16b'/	.	.
.	16b#X'/JJ	.	.
8eL 8c# 8A\	16cc#'\LL	.	.
.	16dd'\	.	.
8e 8c# 8A\	16dd#X'\	.	.
.	16ee'\JJ	.	.
8e 8c# 8A\	16ee#X'\LL	.	.
.	16ff#'\	.	.
8eJ 8c# 8A\	16ggn'\	.	.
.	16gg#X'\JJ	.	.
=80	=80	=80	=80
*^	*^	*	*
8r	1Gn	[1aa	8.r	.	.
8eL 8c# 8A/	.	.	.	.	.
.	.	.	16a\	.	.
8e 8c# 8A/	.	.	8.b\L	.	.
8eJ 8c# 8A/	.	.	.	.	.
.	.	.	16a\Jk	.	.
8eL 8c# 8A/	.	.	8.dd\L	.	.
8e 8c# 8A/	.	.	.	.	.
.	.	.	16cc#\Jk	.	.
8e 8c# 8A/	.	.	8.ff#\L	.	.
8eJ 8c# 8A/	.	.	.	.	.
.	.	.	16ee\Jk	.	.
*v	*v	*	*	*	*
*	*v	*v	*	*
=81	=81	=81	=81
8dL 8A 8F#\	8aa] 8dd\	.	.
8d 8A 8F#\	16r	.	.
.	16g#X'/	.	.
8d 8A 8F#\	16a'/LL	.	.
.	16a#X'/	.	.
8dJ 8A 8F#\	16b'/	.	.
.	16b#X'/JJ	.	.
8dL 8A 8F#\	16cc#'\LL	.	.
.	16dd'\	.	.
8d 8A 8F#\	16dd#X'\	.	.
.	16ee'\JJ	.	.
8d 8A 8F#\	16ee#X'\LL	.	.
.	16ff#'\	.	.
8dJ 8A 8F#\	16ggn'\	.	.
.	16gg#X'\JJ	.	.
!!LO:PB:g=original
=82	=82	=82	=82
*^	*^	*	*
!	!	!	!	!	!LO:HP:a:t=cre-scen-do:ext2=ud
[2d^^/	8GL 8E\	1aa	8.r	.	<
.	8G 8E\	.	.	.	.
.	.	.	16a\	.	.
.	8G 8E\	.	8.dd\L	.	.
.	8GJ 8E\	.	.	.	.
.	.	.	16cc#\Jk	.	[
8d/L]	8GL 8E\	.	8.ff#\L	.	.
8c#^^/	8G 8E\	.	.	.	.
.	.	.	16ee\Jk	.	.
8B^^/	8G 8E\	.	8.ff#\L	.	.
8A^^/J	8GJ 8E\	.	.	.	.
.	.	.	16gg\Jk	.	.
*v	*v	*	*	*	*
*	*v	*v	*	*
=83	=83	=83	=83
!	!LO:TX:i:a:t=più largo.	!	!
8DD/L	[2gg [2dd [2a^^\	.	f
8AA/	.	.	.
8F#/	.	.	.
8A/J	.	.	.
8d\	8gg]L 8dd] 8a\]	.	.
8r	8ff# 8dd 8a^^\	.	.
4r	8ee 8a 8f#^^\	.	.
.	8ddJ 8a 8f#^^\	.	.
=84	=84	=84	=84
8DD/L	[2dd [2f# 2d/	.	.
8AA/	.	.	.
8F#/	.	.	.
8A/J	.	.	.
8d\	8dd]L 8f#/]	.	.
8r	8cc# 8f# 8d/	.	.
4r	8b 8f# 8d/	.	.
.	8aJ 8f# 8d/	.	.
!!LO:LB:g=original
=85	=85	=85	=85
*	*^	*	*
*	*	*tremolo	*	*
8r	2a/	32fn\LLL	.	.
.	.	32d\	.	.
.	.	32f\	.	.
.	.	32d\	.	.
8D'\L	.	32f\	.	.
.	.	32d\	.	.
.	.	32f\	.	.
.	.	32d\	.	.
8.D^\	.	32f\	.	.
.	.	32d\	.	.
.	.	32f\	.	.
.	.	32d\	.	.
.	.	32f\	.	.
.	.	32d\	.	.
16B\Jk	.	32f\	.	.
.	.	32d\JJJ	.	.
(4B\	8g#X/L	32f\LLL	.	.
.	.	32d\	.	.
.	.	32f\	.	.
.	.	32d\	.	.
.	8g#/	32f\	.	.
.	.	32d\	.	.
.	.	32f\	.	.
.	.	32d\	.	.
8D\)	8.g#/	32f\	.	.
.	.	32d\	.	.
.	.	32f\	.	.
.	.	32d\	.	.
8r	.	32f\	.	.
.	.	32d\	.	.
.	16dd/Jk	32f\	.	.
.	.	32d\JJJ	.	.
=86	=86	=86	=86	=86
8r	2dd/	32e\LLL	.	.
.	.	32d\	.	.
.	.	32e\	.	.
.	.	32d\	.	.
8D'\L	.	32e\	.	.
.	.	32d\	.	.
.	.	32e\	.	.
.	.	32d\	.	.
8.D^\	.	32e\	.	.
.	.	32d\	.	.
.	.	32e\	.	.
.	.	32d\	.	.
.	.	32e\	.	.
.	.	32d\	.	.
16B-X\Jk	.	32e\	.	.
.	.	32d\JJJ	.	.
(4B-\	8gn/L	32e\LLL	.	.
.	.	32d\	.	.
.	.	32e\	.	.
.	.	32d\	.	.
.	8g/	32e\	.	.
.	.	32d\	.	.
.	.	32e\	.	.
.	.	32d\	.	.
8D\)	8.g/	32e\	.	.
.	.	32d\	.	.
.	.	32e\	.	.
.	.	32d\	.	.
8r	.	32e\	.	.
.	.	32d\	.	.
.	16dd/Jk	32e\	.	.
.	.	32d\JJJ	.	.
*	*	*Xtremolo	*	*
=87	=87	=87	=87	=87
8r	2dd/	32g\LLL	.	p
.	.	32d\	.	.
.	.	32g\	.	.
.	.	32d\	.	.
8D\L	.	32g\	.	.
.	.	32d\	.	.
.	.	32g\	.	.
.	.	32d\JJJ	.	.
8.D\	.	32f#\LLL	.	.
.	.	32d\	.	.
.	.	32f#\	.	.
.	.	32d\JJ	.	.
.	.	32e#X\LL	.	.
.	.	32d\	.	.
16A\Jk	.	32e#\	.	.
.	.	32d\JJJ	.	.
(4A 4D\	8f#/	2ryy	.	.
.	8aL 8f# 8d'/	.	.	.
4G#X\)	8b 8e# 8d'/	.	.	.
.	8ddJ 8e# 8d'/	.	.	.
!!LO:LB:g=original
=88	=88	=88	=88	=88
*ped	*	*	*	*
!LO:TX:t=P:problem:mixed beam	!	!	!	!
8AAA'</L	(>4.cc# 4.g 4.c#^/	2ryy	.	.
(8E\	.	.	.	.
8A\	.	.	.	.
*Xped	*	*	*	*
8d\J	8b 8gn 8e/	.	.	.
4c#\)	8a 8g 8e/	4ryy	.	.
!	!LO:TX:i:a:t=rallent.	!	!	!
.	8a/L)	.	.	.
4d 4B\	8b/	4g 4e\	.	p
.	8ee/J	.	.	.
=89	=89	=89	=89	=89
!	!LO:TX:i:a:t=dolcissimo	!	!	!
[2c# [2A\	[4.ee/	2g 2e\	.	.
.	32ee/LLL]	.	.	.
.	32dd/	.	.	.
.	32cc#/	.	.	.
.	32b/JJJ	.	.	.
16c#] 16A\]	16a/	2ryy	.	.
16r;	16r;	.	.	.
8r	8aL 8A/	.	.	f
4r	8.ff# 8.f#;/	.	.	.
.	16eeJk 16e/	.	.	.
=90	=90	=90	=90	=90
*ped	*	*	*	*
8D 8DD/	(2ee 2e/	8r	.	.
8dL 8A'\	.	8aL 8f#\	.	.
8A 8F#'\	.	8a 8f#\	.	.
8dJ 8A'\	.	8aJ 8f#\	.	.
*Xped	*	*	*	*
8AL 8F#'\	8dd/)	8aL 8f# 8d\	.	.
8d 8A'\	8a/L	8f#\	.	.
8A 8F#'\	8.dd/	8f# 8d\	.	.
8dJ 8A'\	.	8aJ 8f#\	.	.
.	16cc#Jk 16c#/	.	.	.
!!LO:LB:g=original
=91	=91	=91	=91	=91
8BB 8BBB/	(2cc# 2c#/	8r	.	.
8BL 8G\	.	8gL 8d\	.	.
8G 8D\	.	8g 8d\	.	.
8BJ 8G\	.	8gJ 8d\	.	.
8G 8D\	8b 8g/)	8d 8B\	.	.
8B^^\L	8b^^/L	8ryy	.	<
8B 8G^^\	8ee 8b 8e^^/	4ryy	.	.
8BJ 8A 8F#^^\	8ff#J 8b 8f#^^/	.	.	[
=92	=92	=92	=92	=92
*ped	*	*	*	*
4e: 4B: 4G: 4E^^:\	4gg^^>: 4ee: 4b: 4g;:\	2ryy	.	.
8B\	8b\	.	.	.
*Xped	*	*	*	*
!LO:TUP:a:problem:klamra łukowa	!LO:TUP:a:problem:klamra łukowa	!	!	!
24B'\LL	24b'\LL	.	.	.
24c#'\	24cc#'\	.	.	.
24d'\JJ	24dd'\JJ	.	.	.
*ped	*	*	*	*
4r	(4.ff# (4.f#;/	4ryy	.	sf
!LO:TX:t=P:problem:obie nuty połączone wertykalnym łukiem	!	!	!	!
4c# 4AA\	.	4a;> 4g\	.	.
*Xped	*	*	*	*
.	8ee 8e/))	.	.	.
*	*v	*v	*	*
=93	=93	=93	=93
8D 8DD/	8dd 8d/	.	f
8f#L 8d 8A\	8r	.	.
8d 8A 8F#\	4r	.	.
8f#J 8d 8A\	.	.	.
8dL 8A 8F#\	8r	.	.
8f# 8d 8A\	8fff#L 8ff#\	.	.
8d 8A 8F#\	8.ddd 8.dd^\	.	.
8f#J 8d 8A\	.	.	.
.	16bbJk 16b\	.	.
!!LO:LB:g=original
=94	=94	=94	=94
8D 8DD/	2aa 2ffn 2dd 2a\	.	.
8fnL 8d 8B\	.	.	.
8d 8B 8Fn\	.	.	.
8fJ 8d 8B\	.	.	.
8dL 8B 8F\	8gg#X 8g#X\	.	.
8f 8d 8B\	8dddL 8dd\	.	.
8d 8B 8F\	8.bb 8.b^\	.	.
8fJ 8d 8B\	.	.	.
.	16gg#Jk 16g#\	.	.
=95	=95	=95	=95
8D 8DD/	2ggn 2ee 2b-X 2gn\	.	.
8eL 8d 8B-X\	.	.	.
8d 8B- 8G\	.	.	.
8eJ 8d 8B-\	.	.	.
8d 8A 8F#\	8ff# 8dd 8a 8f#\	.	.
8A\L	8aaL 8a\	.	.
8d\	8ddd 8dd\	.	.
8e\J	8eeeJ 8ee\	.	.
=96	=96	=96	=96
4f#t\	4fff# 4ff#\	.	.
8.e\L	8.eeeL 8.ee\	.	.
16f#\Jk	16fff#Jk 16ff#\	.	.
8a\	8aaa 8aa\	.	.
8r	8r	.	.
8A 8AA\	8ccc# 8aa 8gg 8ee 8cc#\	.	.
8r	8r	.	.
=97	=97	=97	=97
8D 8DD/	8ddd 8aa 8ff# 8dd\	.	.
8r	8r	.	.
4r	4r	.	.
!LO:TX:i:b:t=attaca	!	!	!
2r;	2r;	.	.
==	==	==	==
*-	*-	*-	*-
!!!system-decoration: {(p1)}
!!!ENC: Andrzej Gręziak
!!!END: 2022-08-21
!!!ENC: Kamil Watkowski
!!!END: 2022-09-26
!!!RDF**kern: > = above
!!!RDF**kern: < = below
!!!YEC: Copyright 2022 Narodowy Instytut Fryderyka Chopina (https://polishscores.org)
!!!YEM: License CC-BY-4.0 (https://creativecommons.org/licenses/by/4.0)
!!!YEC: Copyright 2022 Narodowy Instytut Fryderyka Chopina (https://polishscores.org)
